X: 1
T: Tom MacCormack
C: Angus Chisholm
R: jig
Z: 1998 by John Chambers <jc:trillian.mit.edu>
N:
M: 6/8
L: 1/8
K: C
|: GF \
| "C"E3 CEG | "Dm"FEF Ddc | "G"BAB a2^f | "C"g^fa gec \
| "C"E3 CEG | "Dm"FEF Ddc | "G"BAB a2B | "C"c3- c :|
|| z2 \
| "C"G,CE Gce | ag^f g2e | cBc "A7"E2G | "Dm"F3 FEF \
| DFA d2e | "F"fef ABc | "G"BAB a^fa | "C"g3 "G"g^fg ||
|| "C"G,CE Gce | ag^f g2e | cBc "A7"E2G | "Dm"F3 FEF \
| DFA d2e | "F"fef A2c' | "G"bag fed | "C"c3- c |]
